resources/icons/folder_idea_dark.svg

<?xml version="1.0" encoding="UTF-8" standalone="no"?>
<svg
   xmlns:dc="http://purl.org/dc/elements/1.1/"
   xmlns:cc="http://creativecommons.org/ns#"
   xmlns:rdf="http://www.w3.org/1999/02/22-rdf-syntax-ns#"
   xmlns:svg="http://www.w3.org/2000/svg"
   xmlns="http://www.w3.org/2000/svg"
   xmlns:sodipodi="http://sodipodi.sourceforge.net/DTD/sodipodi-0.dtd"
   xmlns:inkscape="http://www.inkscape.org/namespaces/inkscape"
   width="16"
   height="16"
   viewBox="0 0 16 16"
   preserveAspectRatio="xMidYMid"
   version="1.1"
   id="svg29"
   sodipodi:docname="folder_idea_dark.svg"
   inkscape:version="0.92.4 (5da689c313, 2019-01-14)">
  <metadata
     id="metadata33">
    <rdf:RDF>
      <cc:Work
         rdf:about="">
        <dc:format>image/svg+xml</dc:format>
        <dc:type
           rdf:resource="http://purl.org/dc/dcmitype/StillImage" />
      </cc:Work>
    </rdf:RDF>
  </metadata>
  <sodipodi:namedview
     pagecolor="#ffffff"
     bordercolor="#666666"
     borderopacity="1"
     objecttolerance="10"
     gridtolerance="10"
     guidetolerance="10"
     inkscape:pageopacity="0"
     inkscape:pageshadow="2"
     inkscape:window-width="1920"
     inkscape:window-height="1001"
     id="namedview31"
     showgrid="false"
     inkscape:zoom="29.559512"
     inkscape:cx="-0.82433636"
     inkscape:cy="4.9295178"
     inkscape:window-x="-9"
     inkscape:window-y="-9"
     inkscape:window-maximized="1"
     inkscape:current-layer="svg29"
     showguides="false" />
  <defs
     id="defs17">
    <linearGradient
       x1="7.7583556"
       y1="13.697368"
       x2="120.53718"
       y2="109.82117"
       id="a"
       gradientTransform="matrix(0.08296955,0,0,0.06832334,0.63369982,1.5312081)"
       gradientUnits="userSpaceOnUse">
      <stop
         stop-color="#87939a"
         offset="0%"
         id="stop2" />
      <stop
         stop-color="#87939a"
         offset="100%"
         id="stop4" />
    </linearGradient>
    <linearGradient
       x1="38.732097"
       y1="281.51738"
       x2="190.55971"
       y2="141.66053"
       id="b"
       gradientTransform="matrix(0.0751188,0,0,0.04547945,0.64035916,1.5320361)"
       gradientUnits="userSpaceOnUse">
      <stop
         stop-color="#87939a"
         offset="0%"
         id="stop7" />
      <stop
         stop-color="#87939a"
         offset="100%"
         id="stop9" />
    </linearGradient>
    <linearGradient
       x1="65.594449"
       y1="177.89853"
       x2="148.76365"
       y2="86.018055"
       id="c"
       gradientTransform="matrix(0.04967433,0,0,0.06877521,0.64035916,1.5320361)"
       gradientUnits="userSpaceOnUse">
      <stop
         stop-color="#87939a"
         offset="0%"
         id="stop12" />
      <stop
         stop-color="#87939a"
         offset="100%"
         id="stop14" />
    </linearGradient>
  </defs>
  <path
     d="M 11.364713,9.4751785 3.1067498,1.9479932 A 1.4495008,1.5192965 0 1 0 1.4174303,4.3870384 l 9.2884247,6.0439636 0.04214,0.02759 a 0.56139059,0.58842239 0 1 0 0.616718,-0.9834185 z"
     id="path19"
     style="fill:url(#a);stroke-width:0.07529113"
     inkscape:connector-curvature="0" />
  <path
     d="m 15.268814,8.6208177 a 1.5944381,1.6654888 0 0 0 -2.420366,-1.357242 l -9.0174969,5.3614633 -0.015327,0.0087 a 0.80888568,0.84493092 0 1 0 0.6302262,1.556266 l 9.8248387,-3.960376 0.02459,-0.01069 a 1.5944381,1.6654888 0 0 0 0.973416,-1.5980443 z"
     id="path21"
     style="fill:url(#b);stroke-width:0.05844965"
     inkscape:connector-curvature="0" />
  <path
     d="M 8.0066862,8.3714125 A 0.43652604,0.45597835 0 0 0 7.2658557,7.894048 l -3.8068067,5.04569 -0.00818,0.01714 a 0.80848535,0.84451275 0 1 0 1.4007953,0.836985 L 7.980036,8.4163951 c 0.00972,-0.014457 0.018643,-0.029452 0.02665,-0.044983 z"
     id="path23"
     style="fill:url(#c);stroke-width:0.05844965"
     inkscape:connector-curvature="0" />
  <path
     style="fill:#87939a;fill-opacity:1;stroke-width:0.02564059"
     d=""
     id="path24"
     inkscape:connector-curvature="0" />
  <text
     xml:space="preserve"
     style="font-style:normal;font-weight:normal;font-size:12px;line-height:1.25;font-family:sans-serif;letter-spacing:0px;word-spacing:0px;fill:#000000;fill-opacity:1;stroke:none"
     x="4.3640776"
     y="8.7265377"
     id="text26"><tspan
       sodipodi:role="line"
       id="tspan24"
       x="4.3640776"
       y="19.674501" /></text>
  <text
     xml:space="preserve"
     style="font-style:normal;font-weight:normal;font-size:12px;line-height:1.25;font-family:sans-serif;letter-spacing:0px;word-spacing:0px;fill:#000000;fill-opacity:1;stroke:none"
     x="5.0068483"
     y="8.7265377"
     id="text34"><tspan
       sodipodi:role="line"
       id="tspan32"
       x="5.0068483"
       y="19.674501" /></text>
  <text
     xml:space="preserve"
     style="font-style:normal;font-weight:normal;font-size:12px;line-height:1.25;font-family:sans-serif;letter-spacing:0px;word-spacing:0px;fill:#000000;fill-opacity:1;stroke:none"
     x="1.6238428"
     y="12.447844"
     id="text38"><tspan
       sodipodi:role="line"
       id="tspan36"
       x="1.6238428"
       y="23.395807" /></text>
  <path
     style="fill:none;fill-opacity:1;stroke-width:0.03383006"
     d="M 5.4357573,11.191186 C 4.9792285,11.095514 4.6113262,10.767536 4.4042323,10.271602 L 4.3517578,10.145939 4.6984684,9.8856703 C 4.8891593,9.7425225 5.0629483,9.6117639 5.0846664,9.5950962 5.112192,9.5739713 5.1628521,9.6384338 5.2519017,9.8078957 5.3971793,10.084359 5.5283289,10.190911 5.6867263,10.161165 5.820311,10.13608 5.9681388,9.9893794 6.0093611,9.8409913 c 0.020116,-0.07241 0.033502,-0.8511936 0.033616,-1.9556091 l 1.886e-4,-1.8352806 h 0.5256064 0.5256063 l -0.0097,2.055176 -0.0097,2.0551764 -0.078393,0.184632 c -0.2238344,0.527179 -0.6323143,0.82501 -1.1826255,0.862276 -0.1251274,0.0085 -0.2953205,0.0012 -0.378207,-0.01618 z"
     id="path44"
     inkscape:connector-curvature="0" />
  <path
     style="fill:none;fill-opacity:1;stroke-width:0.03383006"
     d="M 8.1744594,8.6006307 V 6.0412612 l 0.9726142,0.024113 c 0.5349378,0.013263 1.0393244,0.038602 1.1208584,0.05631 0.375118,0.081469 0.688208,0.325323 0.856618,0.6671863 0.0674,0.1368163 0.0777,0.2093065 0.0777,0.5467732 0,0.4451313 -0.02062,0.5029613 -0.291558,0.8177079 -0.09083,0.1055185 -0.165148,0.2004463 -0.165148,0.2109508 0,0.010504 0.09179,0.065435 0.203981,0.1220685 0.285619,0.1441799 0.454054,0.3087345 0.58224,0.5688271 0.101331,0.2056027 0.111199,0.2547432 0.121658,0.605864 0.01089,0.365541 0.007,0.391522 -0.09014,0.599064 -0.12945,0.276628 -0.325706,0.489101 -0.572399,0.619696 -0.398616,0.21102 -0.503896,0.224387 -2.0637048,0.262018 L 8.1744594,11.16 Z m 1.8944836,1.6742623 c 0.35174,-0.07812 0.507451,-0.2776203 0.507451,-0.6501732 0,-0.25769 -0.03738,-0.3744796 -0.162845,-0.5088064 C 10.2473,8.9379243 10.095968,8.8933946 9.6545244,8.8925695 l -0.3975031,-7.43e-4 v 0.7264399 0.7264396 l 0.329843,-0.018 c 0.1814137,-0.0099 0.398349,-0.03322 0.4820787,-0.05181 z M 9.7713523,7.9901055 C 10.052491,7.9019196 10.24152,7.5955923 10.188663,7.3138411 10.172254,7.226374 10.121237,7.1430481 10.032283,7.058429 9.8964319,6.9291965 9.8478569,6.9139335 9.4684591,6.881266 L 9.2570213,6.8630604 v 0.6068284 0.6068285 l 0.1776078,-0.018351 c 0.097684,-0.010093 0.2492097,-0.04081 0.3367232,-0.068261 z"
     id="path30"
     inkscape:connector-curvature="0" />
  <path
     style="fill:none;fill-opacity:1;stroke-width:0.03383006"
     d="M 5.4357573,11.191186 C 4.9792285,11.095514 4.6113262,10.767536 4.4042324,10.271602 L 4.3517579,10.145939 4.6984685,9.8856704 C 4.8891593,9.7425225 5.0629484,9.6117639 5.0846665,9.5950962 5.112192,9.5739714 5.1628521,9.6384339 5.2519018,9.8078957 5.3971794,10.084359 5.5283289,10.190911 5.6867263,10.161165 5.820311,10.13608 5.9681388,9.9893794 6.0093612,9.8409913 c 0.020115,-0.07241 0.033502,-0.8511936 0.033616,-1.955609 l 1.887e-4,-1.8352807 h 0.5256063 0.5256063 l -0.0097,2.055176 -0.0097,2.0551764 -0.078393,0.184632 c -0.2238344,0.527179 -0.6323142,0.82501 -1.1826254,0.862276 -0.1251274,0.0085 -0.2953206,0.0012 -0.3782071,-0.01618 z"
     id="path32"
     inkscape:connector-curvature="0" />
  <path
     style="fill:none;fill-opacity:1;stroke-width:0.03383006"
     d="M 5.4357573,11.191186 C 4.9792285,11.095514 4.6113262,10.767536 4.4042324,10.271602 L 4.3517579,10.145939 4.6984685,9.8856704 C 4.8891593,9.7425225 5.0629484,9.6117639 5.0846665,9.5950962 5.112192,9.5739714 5.1628521,9.6384339 5.2519018,9.8078957 5.3971794,10.084359 5.5283289,10.190911 5.6867263,10.161165 5.820311,10.13608 5.9681388,9.9893794 6.0093612,9.8409913 c 0.020115,-0.07241 0.033502,-0.8511936 0.033616,-1.955609 l 1.887e-4,-1.8352807 h 0.5256063 0.5256063 l -0.0097,2.055176 -0.0097,2.0551764 -0.078393,0.184632 c -0.2238344,0.527179 -0.6323142,0.82501 -1.1826254,0.862276 -0.1251274,0.0085 -0.2953206,0.0012 -0.3782071,-0.01618 z"
     id="path34"
     inkscape:connector-curvature="0" />
  <path
     style="fill:none;fill-opacity:1;stroke-width:0.03383006"
     d="M 8.1744594,8.6006307 V 6.0412612 l 0.9726142,0.024113 c 0.5349378,0.013263 1.0393244,0.038602 1.1208584,0.05631 0.375118,0.081469 0.688208,0.325323 0.856618,0.6671863 0.0674,0.1368163 0.0777,0.2093065 0.0777,0.5467732 0,0.4451313 -0.02062,0.5029613 -0.291558,0.8177079 -0.09083,0.1055185 -0.165148,0.2004463 -0.165148,0.2109508 0,0.010504 0.09179,0.065435 0.203981,0.1220685 0.285619,0.1441799 0.454054,0.3087345 0.58224,0.5688271 0.101331,0.2056027 0.111199,0.2547432 0.121658,0.605864 0.01089,0.365541 0.007,0.391522 -0.09014,0.599064 -0.12945,0.276628 -0.325706,0.489101 -0.572399,0.619696 -0.398616,0.21102 -0.503896,0.224387 -2.0637048,0.262018 L 8.1744594,11.16 Z m 1.8944836,1.6742623 c 0.35174,-0.07812 0.507451,-0.2776203 0.507451,-0.6501732 0,-0.25769 -0.03738,-0.3744796 -0.162845,-0.5088064 C 10.2473,8.9379243 10.095968,8.8933946 9.6545244,8.8925695 l -0.3975031,-7.43e-4 v 0.7264399 0.7264396 l 0.329843,-0.018 c 0.1814137,-0.0099 0.398349,-0.03322 0.4820787,-0.05181 z M 9.7713523,7.9901055 C 10.052491,7.9019196 10.24152,7.5955923 10.188663,7.3138411 10.172254,7.226374 10.121237,7.1430481 10.032283,7.058429 9.8964319,6.9291965 9.8478569,6.9139335 9.4684591,6.881266 L 9.2570213,6.8630604 v 0.6068284 0.6068285 l 0.1776078,-0.018351 c 0.097684,-0.010093 0.2492097,-0.04081 0.3367232,-0.068261 z"
     id="path36"
     inkscape:connector-curvature="0" />
  <path
     style="fill:none;fill-opacity:1;stroke-width:0.03383006"
     d="M 8.1744594,8.6006307 V 6.0412612 l 0.9726142,0.024113 c 0.5349378,0.013263 1.0393244,0.038602 1.1208584,0.05631 0.375118,0.081469 0.688208,0.325323 0.856618,0.6671863 0.0674,0.1368163 0.0777,0.2093065 0.0777,0.5467732 0,0.4451313 -0.02062,0.5029613 -0.291558,0.8177079 -0.09083,0.1055185 -0.165148,0.2004463 -0.165148,0.2109508 0,0.010504 0.09179,0.065435 0.203981,0.1220685 0.285619,0.1441799 0.454054,0.3087345 0.58224,0.5688271 0.101331,0.2056027 0.111199,0.2547432 0.121658,0.605864 0.01089,0.365541 0.007,0.391522 -0.09014,0.599064 -0.12945,0.276628 -0.325706,0.489101 -0.572399,0.619696 -0.398616,0.21102 -0.503896,0.224387 -2.0637048,0.262018 L 8.1744594,11.16 Z m 1.8944836,1.6742623 c 0.35174,-0.07812 0.507451,-0.2776203 0.507451,-0.6501732 0,-0.25769 -0.03738,-0.3744796 -0.162845,-0.5088064 C 10.2473,8.9379243 10.095968,8.8933946 9.6545244,8.8925695 l -0.3975031,-7.43e-4 v 0.7264399 0.7264396 l 0.329843,-0.018 c 0.1814137,-0.0099 0.398349,-0.03322 0.4820787,-0.05181 z M 9.7713523,7.9901055 C 10.052491,7.9019196 10.24152,7.5955923 10.188663,7.3138411 10.172254,7.226374 10.121237,7.1430481 10.032283,7.058429 9.8964319,6.9291965 9.8478569,6.9139335 9.4684591,6.881266 L 9.2570213,6.8630604 v 0.6068284 0.6068285 l 0.1776078,-0.018351 c 0.097684,-0.010093 0.2492097,-0.04081 0.3367232,-0.068261 z"
     id="path38"
     inkscape:connector-curvature="0" />
  <path
     style="fill:none;fill-opacity:1;stroke-width:0.03383006"
     d="M 5.4357573,11.191186 C 4.9792285,11.095514 4.6113262,10.767536 4.4042324,10.271602 L 4.3517579,10.145939 4.6984685,9.8856704 C 4.8891593,9.7425225 5.0629484,9.6117639 5.0846665,9.5950962 5.112192,9.5739714 5.1628521,9.6384339 5.2519018,9.8078957 5.3971794,10.084359 5.5283289,10.190911 5.6867263,10.161165 5.820311,10.13608 5.9681388,9.9893794 6.0093612,9.8409913 c 0.020115,-0.07241 0.033502,-0.8511936 0.033616,-1.955609 l 1.887e-4,-1.8352807 h 0.5256063 0.5256063 l -0.0097,2.055176 -0.0097,2.0551764 -0.078393,0.184632 c -0.2238344,0.527179 -0.6323142,0.82501 -1.1826254,0.862276 -0.1251274,0.0085 -0.2953206,0.0012 -0.3782071,-0.01618 z"
     id="path40"
     inkscape:connector-curvature="0" />
</svg>

<svg xmlns="http://www.w3.org/2000/svg" width="16" height="16" viewBox="0 0 16 16" preserveAspectRatio="xMidYMid"><defs><linearGradient x1="7.758" y1="13.697" x2="120.537" y2="109.821" id="a" gradientTransform="matrix(.08297 0 0 .06832 .634 1.531)" gradientUnits="userSpaceOnUse"><stop stop-color="#87939a" offset="0%"/><stop stop-color="#87939a" offset="100%"/></linearGradient><linearGradient x1="38.732" y1="281.517" x2="190.56" y2="141.661" id="b" gradientTransform="matrix(.07512 0 0 .04548 .64 1.532)" gradientUnits="userSpaceOnUse"><stop stop-color="#87939a" offset="0%"/><stop stop-color="#87939a" offset="100%"/></linearGradient><linearGradient x1="65.594" y1="177.899" x2="148.764" y2="86.018" id="c" gradientTransform="matrix(.04967 0 0 .06878 .64 1.532)" gradientUnits="userSpaceOnUse"><stop stop-color="#87939a" offset="0%"/><stop stop-color="#87939a" offset="100%"/></linearGradient></defs><path d="M11.365 9.475L3.107 1.948a1.45 1.52 0 10-1.69 2.439l9.289 6.044.042.028a.561.588 0 10.617-.984z" fill="url(#a)" stroke-width=".075"/><path d="M15.269 8.62a1.594 1.665 0 00-2.42-1.356L3.83 12.625l-.015.009a.809.845 0 10.63 1.556l9.825-3.96.024-.011a1.594 1.665 0 00.974-1.598z" fill="url(#b)" stroke-width=".058"/><path d="M8.007 8.371a.437.456 0 00-.741-.477L3.459 12.94l-.008.017a.808.845 0 101.4.837L7.98 8.416a.451.451 0 00.027-.045z" fill="url(#c)" stroke-width=".058"/><path d="M5.436 11.191c-.457-.095-.825-.423-1.032-.92l-.052-.125.346-.26.387-.29c.027-.022.078.042.167.212.145.276.276.383.435.353.133-.025.281-.172.322-.32.02-.072.034-.851.034-1.956V6.05h1.051l-.01 2.055-.009 2.055-.078.185c-.224.527-.633.825-1.183.862a1.72 1.72 0 01-.378-.016zM8.174 8.6V6.042l.973.024c.535.014 1.04.039 1.12.057.376.081.69.325.858.667.067.137.077.21.077.547 0 .445-.02.503-.291.817-.091.106-.165.2-.165.211a.9.9 0 00.204.122c.285.145.454.31.582.57.101.205.111.254.121.605.011.366.007.392-.09.6-.13.276-.325.488-.572.619-.399.21-.504.224-2.064.262l-.753.018zm1.895 1.675c.352-.078.507-.278.507-.65 0-.258-.037-.375-.162-.51-.167-.177-.318-.222-.76-.222l-.397-.001v1.453l.33-.018a4.02 4.02 0 00.482-.052zM9.77 7.99a.618.618 0 00.418-.676.48.48 0 00-.157-.256c-.136-.129-.184-.144-.564-.177l-.211-.018v1.214l.178-.019a2 2 0 00.336-.068z" fill="none" stroke-width=".034"/><path d="M5.436 11.191c-.457-.095-.825-.423-1.032-.92l-.052-.125.346-.26.387-.29c.027-.022.078.042.167.212.145.276.276.383.435.353.133-.025.281-.172.322-.32.02-.072.034-.851.034-1.956V6.05h1.051l-.01 2.055-.009 2.055-.078.185c-.224.527-.633.825-1.183.862a1.72 1.72 0 01-.378-.016z" fill="none" stroke-width=".034"/><path d="M5.436 11.191c-.457-.095-.825-.423-1.032-.92l-.052-.125.346-.26.387-.29c.027-.022.078.042.167.212.145.276.276.383.435.353.133-.025.281-.172.322-.32.02-.072.034-.851.034-1.956V6.05h1.051l-.01 2.055-.009 2.055-.078.185c-.224.527-.633.825-1.183.862a1.72 1.72 0 01-.378-.016zM8.174 8.6V6.042l.973.024c.535.014 1.04.039 1.12.057.376.081.69.325.858.667.067.137.077.21.077.547 0 .445-.02.503-.291.817-.091.106-.165.2-.165.211a.9.9 0 00.204.122c.285.145.454.31.582.57.101.205.111.254.121.605.011.366.007.392-.09.6-.13.276-.325.488-.572.619-.399.21-.504.224-2.064.262l-.753.018zm1.895 1.675c.352-.078.507-.278.507-.65 0-.258-.037-.375-.162-.51-.167-.177-.318-.222-.76-.222l-.397-.001v1.453l.33-.018a4.02 4.02 0 00.482-.052zM9.77 7.99a.618.618 0 00.418-.676.48.48 0 00-.157-.256c-.136-.129-.184-.144-.564-.177l-.211-.018v1.214l.178-.019a2 2 0 00.336-.068z" fill="none" stroke-width=".034"/><path d="M8.174 8.6V6.042l.973.024c.535.014 1.04.039 1.12.057.376.081.69.325.858.667.067.137.077.21.077.547 0 .445-.02.503-.291.817-.091.106-.165.2-.165.211a.9.9 0 00.204.122c.285.145.454.31.582.57.101.205.111.254.121.605.011.366.007.392-.09.6-.13.276-.325.488-.572.619-.399.21-.504.224-2.064.262l-.753.018zm1.895 1.675c.352-.078.507-.278.507-.65 0-.258-.037-.375-.162-.51-.167-.177-.318-.222-.76-.222l-.397-.001v1.453l.33-.018a4.02 4.02 0 00.482-.052zM9.77 7.99a.618.618 0 00.418-.676.48.48 0 00-.157-.256c-.136-.129-.184-.144-.564-.177l-.211-.018v1.214l.178-.019a2 2 0 00.336-.068zm-4.334 3.201c-.457-.095-.825-.423-1.032-.92l-.052-.125.346-.26.387-.29c.027-.022.078.042.167.212.145.276.276.383.435.353.133-.025.281-.172.322-.32.02-.072.034-.851.034-1.956V6.05h1.051l-.01 2.055-.009 2.055-.078.185c-.224.527-.633.825-1.183.862a1.72 1.72 0 01-.378-.016z" fill="none" stroke-width=".034"/></svg>
